X: 23538
T: Life Inside A Flute
R: slip jig
M: 9/8
K: Eminor
|EAA EAB dBG|EAA EAe deB|
E2A EAB dBd|e2(3deg abg egd||
EAA EAB DBG|EAA EAe dBG|
EAA EAB dBd|e2(3deg abg e2d||
eaa eab ged|e2(3efg abg e2d|
dga abg edB|deg deB A2G||
eaa eab ged|e2(3efg abg egd|
b2a g2e dBd|efg edB ABG||

